X:1
T:La vita fugge
T:Andreas Pevernage
T:Source : Bicinia---Antwerp---Pierre Phalèse Jr---1609. Editor : André Vierendeels (10/05/17).
T:Notes : Original clefs :  C4, F4 Editorial accidentals above the staff m 41 in T : "E" notated as quarter in original print m 58 in T : "A" notated as quarter in originalprint
T:La vita fugge
T:©
T:©
T:©
C:Andreas Pevernage
Z:©
%%score [ 1 2 ]
L:1/8
Q:1/4=120
M:2/2
K:C
V:1 treble-8 nm="Tenor" snm="T"
V:2 bass nm="Bass" snm="B"
V:1
 z4 e4- | e4 B4 | ^c4 d4- | d2 Bc dBcA | BGAB GABc | dBcA B4 | A4 z2 A2 | ^G2 A2 c4- | c2 c2 cBAG | %9
w: La|_ vi-|ta fug-||||ge et|non s'a- rest'|_ un ho- * * *|
 A4 A4 | z2 c4 A2 | F8 | F4 F4 | G8 | A8 | d6 B2 | GABc dcAB | cBAG AB c2- | cB A4 G2 | A8 | %20
w: * ra,|et la|mor-|te vien|die-|tr'a|gran gio-|ma- * * * * * * *|||te,|
 z2 AA A4 | ^G2 A2 B2 G2 | A2 B2 c4 | c4 z2 c2 | d2 d2 cdBc | ABGA B c2 B | c4 z2 G2 | %27
w: et le co-|se pre- sent' e|le pas- sa-|te, mi|dan- no guer- * * *||ra, et|
 c2 B2 A2 G2 | d4 e4 | z2 d2 c2 B2 | Afed c2 d2 | e4 d4 | z2 D2 DEFG | AGAB c4 | B4 z2 d2 | %35
w: le fu- tur' an-|cho- ra,|e'l ri- mem-|brar et l'as- pet- tar m'ac-|co- ra,|hor quin- * * *||ci, hor|
 d2 cB AGFE | D2 d2 G2 GG | A4 A4 | z2 c2 BAGA | Bcde f3 e/d/ | c4 z2 e2- | e2 d3 d c2 | c2 BB d4 | %43
w: quin- di _ _ _ _ _|_ si ch'è ve- ri-|ta- te|se non _ _ _|_ _ _ _ _ _ _|* ch'io|_ ho di me|stes- so pie- ta-|
 A2 c2 B2 B2 | A3 A A2 A2 | B2 G2 A4 | A4 z2 e2 | d2 d2 ^c3 c | ^c2 c2 d2 B2 | c4 c4 | %50
w: te, i sa- rei|gia di que- sti|pen- sier fo-|ra, i|sa- rei gia di|que- sti pen- sier|fo- ra,|
 z2 e2 d2 d2 | c2 z c B2 B2 | A3 c c2 c2 | d2 B2 A>Bc>d | e>fg>f e>dc>B | A>GF>E D>EF>G | %56
w: i sa- rei|gia, i sa- rei|gia di que- sti|pen- sier fo- * * *|||
 A2 A2 z AAA | _B2 A4 G2 | A8 |] %59
w: * ra, di que- sti|pen- sier fo-|ra.|
V:2
 A,8 | E,8- | E,4 ^F,4 | G,6 E,F, | G,E,F,D, E,C,D,E, | F,G, A,4 ^G,2 | A,8 | z2 F,2 E,2 F,2 | %8
w: La|vi-|* ta|fug- * *|||ge|et non s'a-|
 A,6 F,2 | F,E,D,C, D,4 | A,,4 z2 F,2- | F,2 D,2 _B,,4- | B,,4 _B,,4 | _B,,4 C,4- | C,4 D,4- | %15
w: rest' un|ho- * * * *|ra, et|_ la mor-|* te|vien die-|* tr'a|
 D,4 G,4- | G,2 E,2 D,E,F,G, | A,G,F,E, D,2 C,B,, | A,,B,,C,A,, _B,,4 | A,,4 z2 D,D, | %20
w: _ gran|_ gio- ma- * * *|||te et le|
 D,4 ^C,2 D,2 | E,2 ^C,2 D,2 E,2 | F,4 F,4 | z2 F,2 F,2 E,2 | D,E,F,G, A,F,G,E, | %25
w: co- se pre-|sent' e le pas-|sa- te,|mi dan- no|guer- * * * * * * *|
 F,D,E,C, D,E, D,2 | C,8 | z2 G,2 D,2 E,2 | ^F,2 G,2 C,4 | D,4 z2 E,2 | F,2 G,2 A,CB,A, | %31
w: |ra,|et le fu-|tur' an- cho-|ra, e'l|ri- mem- brar et l'as- pet-|
 G,2 A,2 _B,4 | A,8 | z2 A,,2 A,,B,,C,D, | E,D,E,F, G,4 | F,4 z2 A,2 | A,2 G,F, E,D,C,B,, | %37
w: tar m'ac- co-|ra,|hor quin- * * *||ci, hor|quin- di _ _ _ _ _|
 A,,2 A,2 D,2 D,D, | E,4 E,4 | z2 G,2 F,E,D,E, | F,G,A,B, C3 B,/A,/ | G,4 z2 A,2- | %42
w: _ si ch'è ve- ri-|ta- te,|se non _ _ _|_ _ _ _ _ _ _|* ch'io|
 A,2 G,3 G, F,2 | F,2 E,E, G,4 | D,4 z2 F,2 | E,2 E,2 D,3 D, | D,2 D,2 E,2 C,2 | D,4 A,,4 | %48
w: _ ho di me|stes- so pie- ta-|te, i|sa- rei gia di|que- sti pen- sier|fo- ra,|
 z2 A,2 G,2 G,2 | F,4 z2 A,2 | G,2 G,2 F,3 F, | F,2 F,2 G,2 E,2 | F,4 C,4 | z2 G,2 F,2 F,2 | %54
w: i sa- rei|gia, i|sa- rei gia di|que- sti pen- sier|fo- ra,|i sa- rei|
 E,3 E, E,2 E,2 | F,2 D,2 F,>G,A,>G, | F,>E,D,>E, F,>E,D,>C, | D,3 C, _B,,4 | A,,8 |] %59
w: sia di que- sti|pen- sier fo- * * *|||ra.|

